packages/product-components/src/images/networks/xtz.svg

<svg width="32" height="32" viewBox="0 0 32 32" fill="none" xmlns="http://www.w3.org/2000/svg">
<path d="M0 8C0 3.58172 3.58172 0 8 0H24C28.4183 0 32 3.58172 32 8V24C32 28.4183 28.4183 32 24 32H8C3.58172 32 0 28.4183 0 24V8Z" fill="#1F1F1F"/>
<path d="M18.1404 26C16.7153 26 15.6752 25.6562 15.0198 24.9686C14.4129 24.3868 14.0606 23.5877 14.0401 22.7465C14.0328 22.4909 14.092 22.2377 14.2118 22.012C14.3236 21.8169 14.485 21.655 14.6797 21.5429C14.9061 21.43 15.1556 21.371 15.4084 21.371C15.6613 21.371 15.9108 21.43 16.137 21.5429C16.3314 21.6546 16.4921 21.8166 16.6024 22.012C16.7257 22.2366 16.787 22.4902 16.7802 22.7465C16.7929 23.0525 16.7053 23.3544 16.5305 23.6058C16.3849 23.8112 16.1769 23.9636 15.9374 24.0405C16.1716 24.339 16.5029 24.5458 16.8736 24.6249C17.2884 24.7456 17.718 24.8076 18.1498 24.8092C18.7216 24.8142 19.2817 24.6465 19.7569 24.328C20.2498 23.9792 20.6176 23.4806 20.8053 22.9061C21.0434 22.2225 21.1596 21.5021 21.1486 20.7781C21.1678 20.0233 21.0406 19.2718 20.7741 18.5656C20.5737 18.0007 20.1932 17.5175 19.6913 17.1905C19.2249 16.8949 18.6834 16.7399 18.1314 16.7437C17.6504 16.7845 17.1866 16.9423 16.7802 17.2031L15.7782 17.7061V17.2031L20.281 11.1538H14.0401V17.4312C14.0225 17.8843 14.1422 18.332 14.3834 18.7156C14.5001 18.8828 14.658 19.0169 14.8417 19.105C15.0253 19.1932 15.2286 19.2324 15.4318 19.2186C15.8073 19.211 16.1705 19.0829 16.4677 18.853C16.8048 18.6057 17.098 18.3036 17.3353 17.9593C17.3566 17.8989 17.3961 17.8465 17.4481 17.8093C17.49 17.7732 17.5433 17.7532 17.5986 17.7532C17.707 17.7631 17.8096 17.8068 17.892 17.8781C17.9962 17.9948 18.053 18.1464 18.051 18.3031C18.039 18.4082 18.0202 18.5127 17.9949 18.6156C17.7732 19.1529 17.4016 19.6149 16.9245 19.9464C16.4814 20.2466 15.9581 20.4058 15.423 20.403C14.0718 20.403 13.1358 20.1364 12.6149 19.603C12.3471 19.3084 12.1407 18.9631 12.0078 18.5875C11.875 18.2117 11.8182 17.8133 11.841 17.4156V11.1538H8.66666V9.98743H11.8558V7.32805L11.1256 6.59636V6H13.2443L14.0401 6.41256V9.98743L22.2844 9.96233L23.105 10.7873L18.0498 15.8744C18.3553 15.7515 18.6769 15.6736 19.0046 15.6432C19.6534 15.6716 20.2864 15.8525 20.8524 16.1713C21.5077 16.4833 22.0601 16.9769 22.444 17.5937C22.7878 18.1159 23.0312 18.6977 23.1616 19.3093C23.2689 19.7918 23.3264 20.284 23.3333 20.7782C23.3366 21.7214 23.123 22.6528 22.7092 23.5C22.3166 24.3205 21.6561 24.982 20.8368 25.375C19.9982 25.7889 19.0753 26.0028 18.1404 26Z" fill="white"/>
</svg>

<svg xmlns="http://www.w3.org/2000/svg" width="32" height="32" viewBox="0 0 32 32" fill="none">
    <path class="bg" fill="#1F1F1F" d="M0 8a8 8 0 0 1 8-8h16a8 8 0 0 1 8 8v16a8 8 0 0 1-8 8H8a8 8 0 0 1-8-8z"/>
    <path class="fg" fill="#fff" d="M18.14 26q-2.137 0-3.12-1.031a3.2 3.2 0 0 1-.98-2.222 1.5 1.5 0 0 1 .172-.735 1.27 1.27 0 0 1 .468-.47 1.63 1.63 0 0 1 1.457 0c.194.113.355.275.465.47.124.225.185.478.178.735.013.305-.075.607-.25.859a1.16 1.16 0 0 1-.593.434c.235.299.566.506.937.585.414.12.844.183 1.276.184a2.84 2.84 0 0 0 1.607-.481c.493-.349.86-.847 1.048-1.422a6.2 6.2 0 0 0 .344-2.128 5.9 5.9 0 0 0-.375-2.212 2.73 2.73 0 0 0-1.083-1.375 2.9 2.9 0 0 0-1.56-.447c-.48.04-.944.198-1.35.46l-1.003.502v-.503l4.503-6.05h-6.24v6.278a2.25 2.25 0 0 0 .342 1.285 1.18 1.18 0 0 0 1.049.503 1.75 1.75 0 0 0 1.036-.366c.337-.247.63-.55.867-.894a.3.3 0 0 1 .113-.15.23.23 0 0 1 .15-.056.52.52 0 0 1 .294.125.63.63 0 0 1 .159.425q-.018.158-.056.313a3 3 0 0 1-1.07 1.33c-.444.3-.967.46-1.502.457q-2.027 0-2.808-.8a3 3 0 0 1-.774-2.187v-6.262H8.667V9.987h3.189V7.328l-.73-.732V6h2.118l.796.413v3.574l8.244-.025.821.825-5.055 5.087a3.4 3.4 0 0 1 .955-.23 4.1 4.1 0 0 1 1.847.527 3.8 3.8 0 0 1 1.592 1.423c.344.522.587 1.104.718 1.715q.16.726.171 1.47a6.15 6.15 0 0 1-.624 2.721 4 4 0 0 1-1.872 1.875A6.05 6.05 0 0 1 18.14 26"/>
</svg>
